loleaflet/images/lc_verticaltext.svg

<svg viewBox="0 0 24 24" xmlns="http://www.w3.org/2000/svg"><g transform="matrix(0 1 -1 0 24 0)"><rect fill="#3a3a38" height="20" rx="1" width="22" x="1" y="2"/><path d="m2 3h20v18h-20z" fill="#fafafa"/><g fill="#797774"><rect height="1" ry=".5" width="7" x="14" y="14"/><rect height="1" ry=".5" width="9" x="12" y="10"/><rect height="1" ry=".5" width="10" x="11" y="6"/><rect height="1" ry=".5" width="18" x="3" y="18"/></g><path d="m6.7929688 6-3.7929688 10h1.0839844c.1179415 0 .218735-.03365.3007812-.09961.087174-.06596.1450138-.142265.1757813-.228516l.953125-2.671874h3.9765625l.9550776 2.679688c.04102.09132.09813.167632.169922.228515.076919.060883.175759.091797.298828.091797h1.085938l-3.7851562-10zm.7070312 1.3085938c.046151.1877219.0952053.3630364.1464844.5253906.0512788.1623541.1010647.3040156.1523437.4257812l1.3339844 3.7402344h-3.2636719l1.3300782-3.7324219c.0461512-.1217656.0952055-.2634271.1464843-.4257812.0512791-.1623542.1030181-.3404076.1542969-.5332031z" fill="#1e8bcd"/></g></svg>

<?xml version="1.0" encoding="UTF-8" standalone="no"?>
<svg
   xmlns:dc="http://purl.org/dc/elements/1.1/"
   xmlns:cc="http://creativecommons.org/ns#"
   xmlns:rdf="http://www.w3.org/1999/02/22-rdf-syntax-ns#"
   xmlns:svg="http://www.w3.org/2000/svg"
   xmlns="http://www.w3.org/2000/svg"
   xmlns:sodipodi="http://sodipodi.sourceforge.net/DTD/sodipodi-0.dtd"
   xmlns:inkscape="http://www.inkscape.org/namespaces/inkscape"
   viewBox="0 0 24 24"
   version="1.1"
   id="svg18"
   sodipodi:docname="lc_verticaltext.svg"
   inkscape:version="0.92.5 (2060ec1f9f, 2020-04-08)">
  <metadata
     id="metadata24">
    <rdf:RDF>
      <cc:Work
         rdf:about="">
        <dc:format>image/svg+xml</dc:format>
        <dc:type
           rdf:resource="http://purl.org/dc/dcmitype/StillImage" />
        <dc:title></dc:title>
      </cc:Work>
    </rdf:RDF>
  </metadata>
  <defs
     id="defs22" />
  <sodipodi:namedview
     pagecolor="#ffffff"
     bordercolor="#666666"
     borderopacity="1"
     objecttolerance="10"
     gridtolerance="10"
     guidetolerance="10"
     inkscape:pageopacity="0"
     inkscape:pageshadow="2"
     inkscape:window-width="1366"
     inkscape:window-height="700"
     id="namedview20"
     showgrid="true"
     inkscape:zoom="13.906433"
     inkscape:cx="8.2959517"
     inkscape:cy="13.340359"
     inkscape:window-x="0"
     inkscape:window-y="0"
     inkscape:window-maximized="1"
     inkscape:current-layer="svg18">
    <inkscape:grid
       type="xygrid"
       id="grid834" />
  </sodipodi:namedview>
  <g
     id="g844"
     transform="rotate(90,12,12)">
    <rect
       id="rect2"
       y="2"
       x="1"
       width="22"
       rx="1"
       height="20"
       style="fill:#3a3a38" />
    <path
       id="path4"
       d="M 2,3 H 22 V 21 H 2 Z"
       inkscape:connector-curvature="0"
       style="fill:#fafafa" />
    <g
       id="g14"
       style="fill:#797774">
      <rect
         id="rect6"
         y="14"
         x="14"
         width="7"
         ry="0.5"
         height="1" />
      <rect
         id="rect8"
         y="10"
         x="12"
         width="9"
         ry="0.5"
         height="1" />
      <rect
         id="rect10"
         y="6"
         x="11"
         width="10"
         ry="0.5"
         height="1" />
      <rect
         id="rect12"
         y="18"
         x="3"
         width="18"
         ry="0.5"
         height="1" />
    </g>
    <path
       id="path16"
       d="M 6.7929688,6 3,16 h 1.0839844 c 0.1179415,0 0.218735,-0.03365 0.3007812,-0.09961 0.087174,-0.06596 0.1450138,-0.142265 0.1757813,-0.228516 L 5.5136719,13 h 3.9765625 l 0.9550776,2.679688 c 0.04102,0.09132 0.09813,0.167632 0.169922,0.228515 C 10.692153,15.969086 10.790993,16 10.914062,16 H 12 L 8.2148438,6 Z M 7.5,7.3085938 C 7.546151,7.4963157 7.5952053,7.6716302 7.6464844,7.8339844 7.6977632,7.9963385 7.7475491,8.138 7.7988281,8.2597656 L 9.1328125,12 H 5.8691406 L 7.1992188,8.2675781 C 7.24537,8.1458125 7.2944243,8.004151 7.3457031,7.8417969 7.3969822,7.6794427 7.4487212,7.5013893 7.5,7.3085938 Z"
       inkscape:connector-curvature="0"
       style="fill:#1e8bcd" />
  </g>
</svg>
